X:4030
T:Martin Byrne's Waltz (A)
O:england
N:IrTrad, 6/99. There is a (later?) version played as a
N:march, (well known, Scottish)known as
N: "Wi' A Hundred Pipers"
M:3/4
L:1/8
Q:120
D:"Last Night's Fun"  Sherburn & Bartley
R:Waltz
K:A
|:|{e}c3 E E>c|cE eE cE|F<A F>E C>E|A,4 a>f|
e2 c2 c>d|c3 e (3dcB|AB c<e- e>d| c>A B2 A>B|
c3 E E>c|cE eE cE|F<A F>E C>E|A,4 a>f|
e>a (3fed c>A|B4 (3dcB|A4 A>B|1A4 (3BAB:|2A4 (3Bcd|
e2 c2 A2|{ef}e2 c2 A2|{a}f2 a2  a>b|a2  a>b af|
e2 c2 c>d|c3 e (3dcB|AB c<e- e>d|c>A B2 c (3B/2c/2d/2|
e2 c2 A2|{ef}e2 c2 A2|{a}f2 a2 a>b|a2 a>b a>f|
e>a (3fed c>A|B4 (3dcB|A4 {c}A>B|A4 (3Bcd|
e2 c2 A2|{ef}e2 c2 A2|{a}f2 a2 a>b|a2 a>b af|
e2 c2 c>d|c3 c/2e/2 c>B|A>B c>B A>F|E>D E3 d|
e2 c2 A2|{ef}e2 c2 A2|{a}f2 a2 a>b|a2 a>b a>f|
e>a (3fed) c>A|B4 (3dcB|A4 {c}A>B|A4||


